_includes/icons/color-pulse.svg

<svg fill="#666" height="50" viewBox="0 0 48 48" width="50" xmlns="http://www.w3.org/2000/svg"><path d="m27.6 42.9-5.3-26.4-4.6 17.8-4.2-11.5-.8 2.2h-9.7v-2h8.3l2.3-5.8 3.7 10.3 5.3-20 5.1 25.6 3.7-16.9 3.3 9.9 1.2-3.1h9.1v2h-7.7l-2.8 6.9-2.7-8.1z" fill="#f44336"/><g fill="#dd2c00"><circle cx="3" cy="24" r="2"/><circle cx="45" cy="24" r="2"/></g></svg>

<svg xmlns="http://www.w3.org/2000/svg" viewBox="0 0 48 48" width="50" height="50" fill="#666"><path fill="#f44336" d="M27.6 42.9L22.3 16.5 17.7 34.3 13.5 22.8 12.7 25 3 25 3 23 11.3 23 13.6 17.2 17.3 27.5 22.6 7.5 27.7 33.1 31.4 16.2 34.7 26.1 35.9 23 45 23 45 25 37.3 25 34.5 31.9 31.8 23.8z"/><circle cx="3" cy="24" r="2" fill="#dd2c00"/><circle cx="45" cy="24" r="2" fill="#dd2c00"/></svg>
